img/icons/icon-mail-blue-2.svg

<svg width="14" height="12" viewBox="0 0 14 12" fill="none" xmlns="http://www.w3.org/2000/svg">
<path fill-rule="evenodd" clip-rule="evenodd" d="M1.66659 0.666504H12.3333C13.0666 0.666504 13.6666 1.2665 13.6666 1.99984V9.99984C13.6666 10.7332 13.0666 11.3332 12.3333 11.3332H1.66659C0.933252 11.3332 0.333252 10.7332 0.333252 9.99984L0.339919 1.99984C0.339919 1.2665 0.933252 0.666504 1.66659 0.666504ZM6.99992 6.6665L12.3333 3.33317V1.99984L6.99992 5.33317L1.66659 1.99984V3.33317L6.99992 6.6665Z" fill="#0D50C6"/>
</svg>

<svg width="14" height="12" fill="none" xmlns="http://www.w3.org/2000/svg"><path fill-rule="evenodd" clip-rule="evenodd" d="M1.667.667h10.666c.734 0 1.334.6 1.334 1.333v8c0 .733-.6 1.333-1.334 1.333H1.667c-.734 0-1.334-.6-1.334-1.333L.34 2A1.33 1.33 0 011.667.667zm5.333 6l5.333-3.334V2L7 5.333 1.667 2v1.333L7 6.666z" fill="#0D50C6"/></svg>
